svg/color/ton.svg

<svg width="64" height="65" viewBox="0 0 64 65" fill="none" xmlns="http://www.w3.org/2000/svg">
<rect y="0.303711" width="64" height="64" rx="32" fill="#0098EA"/>
<rect x="0.5" y="0.803711" width="63" height="63" rx="31.5" stroke="#070B14" stroke-opacity="0.15"/>
<path d="M42.9259 18.1672H21.0725C17.0545 18.1672 14.5077 22.5015 16.5292 26.0054L30.0163 49.3823C30.8964 50.9087 33.102 50.9087 33.9821 49.3823L47.472 26.0054C49.4907 22.5071 46.944 18.1672 42.9286 18.1672H42.9259ZM30.0053 42.3719L27.0681 36.6872L19.9808 24.0115C19.5132 23.2002 20.0907 22.1605 21.0698 22.1605H30.0026V42.3747L30.0053 42.3719ZM44.0122 24.0087L36.9276 36.69L33.9904 42.3719V22.1578H42.9232C43.9022 22.1578 44.4797 23.1974 44.0122 24.0087Z" fill="white"/>
</svg>

<svg xmlns="http://www.w3.org/2000/svg" width="64" height="65" fill="none" viewBox="0 0 64 65"><rect width="64" height="64" y=".304" fill="#0098EA" rx="32"/><rect width="63" height="63" x=".5" y=".804" stroke="#070B14" stroke-opacity=".15" rx="31.5"/><path fill="#fff" d="M42.926 18.167H21.073c-4.018 0-6.565 4.334-4.544 7.838l13.487 23.377c.88 1.527 3.086 1.527 3.966 0l13.49-23.377c2.019-3.498-.528-7.838-4.543-7.838zm-12.92 24.205-2.938-5.685-7.087-12.675a1.238 1.238 0 0 1 1.089-1.852h8.933v20.215zm14.006-18.363L36.928 36.69l-2.938 5.682V22.158h8.933c.98 0 1.557 1.04 1.09 1.85"/></svg>
